src/icons/pin.svg

<svg width="24" height="24" viewBox="0 0 24 24" fill="none" xmlns="http://www.w3.org/2000/svg">
<g clip-path="url(#clip0_711_1655)">
<g clip-path="url(#clip1_711_1655)">
<path d="M4.0511 20.6075C4.0901 20.6465 4.18869 20.6497 4.34685 20.6172C4.50502 20.5848 4.70004 20.5176 4.93191 20.4157C5.16378 20.3139 5.41189 20.1741 5.67623 19.9964C5.94063 19.8187 6.19633 19.6064 6.44334 19.3594L10.0123 15.7904L8.86168 14.6397L5.2927 18.2087C5.04568 18.4557 4.83332 18.7114 4.65561 18.9758C4.47794 19.2402 4.33818 19.4883 4.23633 19.7201C4.13447 19.952 4.0673 20.147 4.03481 20.3052C4.00233 20.4634 4.00776 20.5641 4.0511 20.6075ZM4.81168 11.6559L12.9962 19.8404C13.2909 20.1351 13.6072 20.2846 13.9453 20.2889C14.2833 20.2933 14.591 20.1568 14.8683 19.8794C15.3451 19.4026 15.6875 18.8111 15.8955 18.1047C16.1035 17.3983 16.1631 16.6344 16.0743 15.8132C15.9854 14.9919 15.7438 14.1652 15.3495 13.3331C14.9551 12.501 14.3938 11.7209 13.6657 10.9928C12.9376 10.2647 12.1565 9.70242 11.3222 9.30588C10.4879 8.90933 9.66125 8.66771 8.84215 8.58103C8.02305 8.49435 7.2592 8.55395 6.5506 8.75982C5.84205 8.96565 5.2494 9.30694 4.77263 9.7837C4.49527 10.0611 4.35985 10.3698 4.36639 10.71C4.37288 11.0502 4.52131 11.3655 4.81168 11.6559ZM6.05332 10.9343C5.90164 10.7826 5.92547 10.6331 6.12481 10.4858C6.44985 10.2301 6.86265 10.0513 7.3632 9.94946C7.86376 9.84762 8.41416 9.84329 9.0144 9.93646C9.61465 10.0296 10.2322 10.2376 10.8672 10.5605C11.502 10.8834 12.1185 11.3439 12.7166 11.942C13.3103 12.5357 13.7687 13.15 14.0916 13.7849C14.4144 14.4198 14.6224 15.0374 14.7156 15.6376C14.8088 16.2379 14.8044 16.7883 14.7026 17.2888C14.6007 17.7894 14.422 18.2022 14.1662 18.5272C14.0189 18.7266 13.8694 18.7504 13.7177 18.5987L6.05332 10.9343ZM14.2898 1.91772C14.0818 2.12575 13.9539 2.41829 13.9063 2.79533C13.8673 3.05103 13.8597 3.36849 13.8835 3.7477C13.9073 4.12691 13.9518 4.53754 14.0168 4.9796C14.0818 5.42165 14.1598 5.8702 14.2508 6.32526L10.5779 9.51714L11.618 10.5573L15.772 6.88432C15.8543 6.81065 15.8825 6.73481 15.8565 6.6568C15.7395 6.28842 15.6409 5.93413 15.5607 5.59392C15.4805 5.25371 15.4177 4.94601 15.3722 4.67081C15.3267 4.39561 15.2985 4.16809 15.2877 3.98823C15.2768 3.80837 15.2801 3.69678 15.2974 3.65344C15.3148 3.5841 15.3451 3.54726 15.3884 3.54292C15.4318 3.53859 15.4708 3.55376 15.5055 3.58843L21.0636 9.14659C21.0983 9.18125 21.1135 9.22026 21.1091 9.26362C21.1048 9.30694 21.0679 9.33727 20.9986 9.3546C20.9553 9.37194 20.8448 9.37628 20.6671 9.36764C20.4894 9.35896 20.2629 9.33187 19.9878 9.28638C19.7126 9.24088 19.4038 9.17695 19.0613 9.09457C18.719 9.01224 18.3636 8.91257 17.9952 8.79556C17.9172 8.76956 17.8436 8.79989 17.7742 8.88657L14.0948 13.0341L15.1349 14.0742L18.3268 10.4012C18.7819 10.4923 19.2315 10.5714 19.6757 10.6385C20.1199 10.7057 20.5306 10.7501 20.9076 10.7718C21.2846 10.7934 21.601 10.7848 21.8567 10.7458C22.2381 10.7024 22.5328 10.5767 22.7408 10.3687C22.9402 10.1694 23.0344 9.93427 23.0236 9.66344C23.0128 9.39256 22.8947 9.14445 22.6693 8.91909L15.7395 1.98924C15.5098 1.75954 15.2606 1.64036 14.9919 1.63169C14.7232 1.62302 14.4892 1.71837 14.2898 1.91772Z" fill="currentColor"/>
</g>
</g>
<defs>
<clipPath id="clip0_711_1655">
<rect width="24" height="24" fill="currentColor"/>
</clipPath>
<clipPath id="clip1_711_1655">
<rect width="14.2775" height="22" fill="currentColor" transform="translate(14.5563) rotate(45)"/>
</clipPath>
</defs>
</svg>

<svg width="24" height="24" fill="none" xmlns="http://www.w3.org/2000/svg"><g clip-path="url(#clip0_711_1655)"><g clip-path="url(#clip1_711_1655)"><path d="M4.051 20.608c.04.038.138.042.296.01.158-.033.353-.1.585-.202a5.153 5.153 0 0 0 1.511-1.056l3.57-3.57-1.151-1.15-3.57 3.569a5.153 5.153 0 0 0-1.056 1.511 3.039 3.039 0 0 0-.201.585c-.033.158-.027.26.016.303Zm.76-8.952 8.185 8.184c.295.295.611.445.95.449.337.004.645-.132.922-.41.477-.476.82-1.068 1.027-1.774.209-.707.268-1.47.18-2.292a7.72 7.72 0 0 0-.725-2.48c-.395-.832-.956-1.612-1.684-2.34-.728-.728-1.51-1.29-2.344-1.687-.834-.397-1.66-.638-2.48-.725-.819-.087-1.583-.027-2.291.179-.709.206-1.302.547-1.778 1.024-.278.277-.413.586-.407.926.007.34.155.655.446.946Zm1.242-.722c-.151-.151-.128-.3.072-.448.325-.256.738-.435 1.238-.537a4.692 4.692 0 0 1 1.651-.013c.6.094 1.218.302 1.853.624.635.323 1.251.784 1.85 1.382.593.594 1.052 1.208 1.375 1.843.322.635.53 1.252.624 1.853.093.6.088 1.15-.013 1.65-.102.501-.281.914-.537 1.24-.147.199-.297.222-.448.07l-7.665-7.664Zm8.237-9.016c-.208.208-.336.5-.384.877a4.572 4.572 0 0 0-.023.953c.024.379.069.79.134 1.232.065.442.143.89.234 1.345l-3.673 3.192 1.04 1.04 4.154-3.673c.082-.073.11-.15.085-.227a14.539 14.539 0 0 1-.485-1.986 6.863 6.863 0 0 1-.084-.683c-.011-.18-.008-.291.01-.335.017-.069.047-.106.09-.11a.14.14 0 0 1 .117.045l5.559 5.559a.14.14 0 0 1 .045.117c-.004.043-.041.073-.11.09-.044.018-.154.022-.332.014a6.174 6.174 0 0 1-.68-.082 13.32 13.32 0 0 1-.926-.191 15.51 15.51 0 0 1-1.066-.3c-.078-.025-.151.005-.22.092l-3.68 4.147 1.04 1.04 3.192-3.673c.455.091.904.17 1.349.238.444.067.855.111 1.232.133.377.021.693.013.949-.026.381-.044.676-.17.884-.377a.91.91 0 0 0 .283-.706c-.011-.27-.13-.519-.355-.744l-6.93-6.93c-.23-.23-.478-.349-.747-.357a.917.917 0 0 0-.702.286Z" fill="currentColor"/></g></g><defs><clipPath id="clip0_711_1655"><path fill="currentColor" d="M0 0h24v24H0z"/></clipPath><clipPath id="clip1_711_1655"><path fill="currentColor" transform="rotate(45 7.278 17.571)" d="M0 0h14.277v22H0z"/></clipPath></defs></svg>
